svg/UnitedNationsOCHA-Humanitarian/socioeconomic_and_development_urban_icon.svg

<svg xmlns="http://www.w3.org/2000/svg" viewBox="0 0 32 32" enable-background="new 0 0 32 32"><path fill="#407cca" d="m27.92 23.787v-10.156h-4.52v10.156h-3.01v-18.96h-7.536v18.96h-2.01v-12.188h-6.53v12.188h-4.314v3.388h32v-3.388h-4.08m-10.691-17.261h2.381v1.648h-2.381v-1.648m0 2.596h2.381v1.646h-2.381v-1.646m-3.596-2.596h2.38v1.648h-2.38v-1.648m0 2.596h2.38v1.646h-2.38v-1.646m-5.206 3.883h1.459v1.945h-1.459v-1.945m-3.152 0h1.459v1.945h-1.459v-1.945"/></svg>

<?xml version="1.0" encoding="utf-8"?>
<!-- Generator: Adobe Illustrator 16.0.3, SVG Export Plug-In . SVG Version: 6.00 Build 0)  -->
<!DOCTYPE svg PUBLIC "-//W3C//DTD SVG 1.1//EN" "http://www.w3.org/Graphics/SVG/1.1/DTD/svg11.dtd">
<svg version="1.1" id="Layer_1" xmlns="http://www.w3.org/2000/svg" xmlns:xlink="http://www.w3.org/1999/xlink" x="0px" y="0px"
	 width="32px" height="32px" viewBox="0 0 32 32" enable-background="new 0 0 32 32" xml:space="preserve">
<path fill="#407CCA" d="M27.92,23.787V13.631H23.4v10.156h-3.012V4.827h-7.536v18.96h-2.008V11.599h-6.53v12.188H0v3.388h32v-3.388
	H27.92z M17.229,6.526h2.381v1.648h-2.381V6.526z M17.229,9.122h2.381v1.646h-2.381V9.122z M13.633,6.526h2.38v1.648h-2.38V6.526z
	 M13.633,9.122h2.38v1.646h-2.38V9.122z M8.427,13.005h1.459v1.945H8.427V13.005z M5.275,13.005h1.459v1.945H5.275V13.005z"/>
</svg>
